X: 400
P: Longways for as many as will
M: C|
L: 1/8
K: G
V: 1
g |\
e/f/ |\
gage agab | gage gage | gage agab | gage g2b2 |
V: 2 clef=bass middle=d
z | G2zB c2zc | B2G2 z2g2 | efgB c2zB | c2zc dDG |] z | c2z2 c2z2 | c2z2 c2z2 |
c2z2 c2z2 | c2z2 B2gG | z2GB c2zc | B2G2 z2g2 | efgB c2zB | c2zc G3 |]

